styles/2/Numix/128/places/default-folder-download.svg

<?xml version="1.0" encoding="UTF-8" standalone="no"?>
<svg
   xmlns:dc="http://purl.org/dc/elements/1.1/"
   xmlns:cc="http://creativecommons.org/ns#"
   xmlns:rdf="http://www.w3.org/1999/02/22-rdf-syntax-ns#"
   xmlns:svg="http://www.w3.org/2000/svg"
   xmlns="http://www.w3.org/2000/svg"
   xmlns:sodipodi="http://sodipodi.sourceforge.net/DTD/sodipodi-0.dtd"
   xmlns:inkscape="http://www.inkscape.org/namespaces/inkscape"
   width="128px"
   height="128px"
   viewBox="0 0 128 128"
   version="1.1"
   id="svg24424"
   inkscape:version="0.91 r"
   sodipodi:docname="default-folder-download.svg">
  <metadata
     id="metadata24437">
    <rdf:RDF>
      <cc:Work
         rdf:about="">
        <dc:format>image/svg+xml</dc:format>
        <dc:type
           rdf:resource="http://purl.org/dc/dcmitype/StillImage" />
      </cc:Work>
    </rdf:RDF>
  </metadata>
  <defs
     id="defs24435" />
  <sodipodi:namedview
     pagecolor="#ffffff"
     bordercolor="#666666"
     borderopacity="1"
     objecttolerance="10"
     gridtolerance="10"
     guidetolerance="10"
     inkscape:pageopacity="0"
     inkscape:pageshadow="2"
     inkscape:window-width="640"
     inkscape:window-height="480"
     id="namedview24433" />
  <g
     id="surface1">
    <path
       style=" stroke:none;fill-rule:nonzero;fill:rgb(91.372549%,69.019608%,50.196078%);fill-opacity:1;"
       d="M 18 16 C 15.070312 16 12 19.023438 12 22 L 12 24 L 6 24 C 3.058594 24 0 26.992188 0 30 L 0 106 C 0 110 2 112 6 112 L 122 112 C 125.136719 112 128 109.285156 128 106 L 128 40 C 128 36.988281 125.089844 34 122 34 L 116 34 L 116 22 C 116 19.078125 113.09375 16 110 16 Z M 18 16 "
       id="path24427" />
    <path
       style=" stroke:none;fill-rule:nonzero;fill:rgb(0%,0%,0%);fill-opacity:0.321569;"
       d="M 18 16 C 15.070312 16 12 19.023438 12 22 L 12 24 L 6 24 C 3.058594 24 0 26.992188 0 30 L 0 106 C 0 110 2 112 6 112 L 122 112 C 125.136719 112 128 109.285156 128 106 L 128 40 C 128 36.988281 125.089844 34 122 34 L 116 34 L 116 22 C 116 19.078125 113.09375 16 110 16 Z M 6 28 L 74 28 C 75.179688 28 76 29.03125 76 30 L 76 38 L 122 38 C 123.011719 38 124 39.015625 124 40 L 124 106 C 124 107.042969 123.042969 108 122 108 L 6 108 C 5.070312 108 4 107.207031 4 106 L 4 30 C 4 29.015625 5.03125 28 6 28 Z M 6 28 "
       id="path24429" />
    <path
       style=" stroke:none;fill-rule:nonzero;fill:rgb(0%,0%,0%);fill-opacity:0.321569;"
       d="M 64 48 C 61.785156 48 60 49.785156 60 52 L 60 72 L 52 72 C 48 72 48 72 52 76 L 60 84 C 64 88 64 88 68 84 L 76 76 C 80 72 80 72 76 72 L 68 72 L 68 52 C 68 49.785156 66.214844 48 64 48 Z M 39.875 76 C 37.738281 76 36 77.785156 36 80 L 36 96.1875 C 36.007812 96.398438 36.023438 96.613281 36.0625 96.8125 C 36.070312 96.855469 36.054688 96.894531 36.0625 96.9375 C 36.113281 97.15625 36.230469 97.359375 36.3125 97.5625 C 36.414062 97.8125 36.535156 98.03125 36.6875 98.25 C 36.804688 98.421875 36.917969 98.597656 37.0625 98.75 C 37.082031 98.773438 37.105469 98.789062 37.125 98.8125 C 37.144531 98.832031 37.167969 98.855469 37.1875 98.875 C 37.34375 99.03125 37.507812 99.1875 37.6875 99.3125 C 37.804688 99.390625 37.9375 99.433594 38.0625 99.5 C 38.164062 99.554688 38.269531 99.640625 38.375 99.6875 C 38.394531 99.695312 38.417969 99.679688 38.4375 99.6875 C 38.652344 99.777344 38.832031 99.886719 39.0625 99.9375 C 39.101562 99.945312 39.148438 99.929688 39.1875 99.9375 C 39.402344 99.976562 39.648438 100 39.875 100 C 39.917969 100 39.957031 100 40 100 L 88 100 C 88.707031 100 89.363281 99.804688 89.9375 99.5 C 90.03125 99.449219 90.160156 99.433594 90.25 99.375 C 90.273438 99.359375 90.289062 99.328125 90.3125 99.3125 C 90.492188 99.1875 90.65625 99.03125 90.8125 98.875 C 90.824219 98.863281 90.800781 98.824219 90.8125 98.8125 C 90.824219 98.800781 90.863281 98.824219 90.875 98.8125 C 90.894531 98.792969 90.917969 98.769531 90.9375 98.75 C 91.074219 98.601562 91.199219 98.484375 91.3125 98.3125 C 91.324219 98.296875 91.300781 98.265625 91.3125 98.25 C 91.464844 98.03125 91.585938 97.8125 91.6875 97.5625 C 91.769531 97.359375 91.886719 97.15625 91.9375 96.9375 C 91.945312 96.894531 91.929688 96.855469 91.9375 96.8125 C 91.976562 96.613281 91.992188 96.398438 92 96.1875 L 92 80 C 92 77.785156 90.261719 76 88.125 76 L 87.875 76 C 85.738281 76 84 77.785156 84 80 L 84 92 L 44 92 L 44 80 C 44 77.785156 42.261719 76 40.125 76 Z M 39.875 76 "
       id="path24431" />
  </g>
</svg>

<svg xmlns="http://www.w3.org/2000/svg" viewBox="0 0 128 128">
 <g>
  <path d="m 18 16 c -2.93 0 -6 3.02 -6 6 l 0 2 l -6 0 c -2.941 0 -6 2.992 -6 6 l 0 76 c 0 4 2 6 6 6 l 116 0 c 3.137 0 6 -2.715 6 -6 l 0 -66 c 0 -3.01 -2.91 -6 -6 -6 l -6 0 l 0 -12 c 0 -2.922 -2.906 -6 -6 -6 m -92 0" style="fill:#e8b07f;fill-opacity:1;stroke:none;fill-rule:nonzero"/>
  <path d="m 18 16 c -2.93 0 -6 3.02 -6 6 l 0 2 l -6 0 c -2.941 0 -6 2.992 -6 6 l 0 76 c 0 4 2 6 6 6 l 116 0 c 3.137 0 6 -2.715 6 -6 l 0 -66 c 0 -3.01 -2.91 -6 -6 -6 l -6 0 l 0 -12 c 0 -2.922 -2.906 -6 -6 -6 m -104 12 l 68 0 c 1.18 0 2 1.031 2 2 l 0 8 l 46 0 c 1.012 0 2 1.016 2 2 l 0 66 c 0 1.043 -0.957 2 -2 2 l -116 0 c -0.93 0 -2 -0.793 -2 -2 l 0 -76 c 0 -0.984 1.031 -2 2 -2 m 0 0" style="fill:#000;fill-opacity:0.322;stroke:none;fill-rule:nonzero"/>
  <path d="m 64 48 c -2.215 0 -4 1.785 -4 4 l 0 20 l -8 0 c -4 0 -4 0 0 4 l 8 8 c 4 4 4 4 8 0 l 8 -8 c 4 -4 4 -4 0 -4 l -8 0 l 0 -20 c 0 -2.215 -1.785 -4 -4 -4 m -24.12 28 c -2.137 0 -3.875 1.785 -3.875 4 l 0 16.188 c 0.008 0.211 0.023 0.426 0.063 0.625 c 0.008 0.043 -0.008 0.082 0 0.125 c 0.051 0.219 0.168 0.422 0.25 0.625 c 0.102 0.25 0.223 0.469 0.375 0.688 c 0.117 0.172 0.23 0.348 0.375 0.5 c 0.02 0.023 0.043 0.039 0.063 0.063 c 0.02 0.02 0.043 0.043 0.063 0.063 c 0.156 0.156 0.32 0.313 0.5 0.438 c 0.117 0.078 0.25 0.121 0.375 0.188 c 0.102 0.055 0.207 0.141 0.313 0.188 c 0.02 0.008 0.043 -0.008 0.063 0 c 0.215 0.09 0.395 0.199 0.625 0.25 c 0.039 0.008 0.086 -0.008 0.125 0 c 0.215 0.039 0.461 0.063 0.688 0.063 c 0.043 0 0.082 0 0.125 0 l 48 0 c 0.707 0 1.363 -0.195 1.938 -0.5 c 0.094 -0.051 0.223 -0.066 0.313 -0.125 c 0.023 -0.016 0.039 -0.047 0.063 -0.063 c 0.18 -0.125 0.344 -0.281 0.5 -0.438 c 0.012 -0.012 -0.012 -0.051 0 -0.063 c 0.012 -0.012 0.051 0.012 0.063 0 c 0.02 -0.02 0.043 -0.043 0.063 -0.063 c 0.137 -0.148 0.262 -0.266 0.375 -0.438 c 0.012 -0.016 -0.012 -0.047 0 -0.063 c 0.152 -0.219 0.273 -0.438 0.375 -0.688 c 0.082 -0.203 0.199 -0.406 0.25 -0.625 c 0.008 -0.043 -0.008 -0.082 0 -0.125 c 0.039 -0.199 0.055 -0.414 0.063 -0.625 l 0 -16.188 c 0 -2.215 -1.738 -4 -3.875 -4 l -0.25 0 c -2.137 0 -3.875 1.785 -3.875 4 l 0 12 l -40 0 l 0 -12 c 0 -2.215 -1.738 -4 -3.875 -4 m -0.25 0" style="fill:#000;fill-opacity:0.322;stroke:none;fill-rule:nonzero"/>
 </g>
</svg>
